dist/img/quest-b-mob.svg

<svg width="363" height="769" fill="none" xmlns="http://www.w3.org/2000/svg"><path opacity=".6" fill-rule="evenodd" clip-rule="evenodd" d="M10 0C4.478 0 0 4.477 0 10v749c0 5.523 4.478 10 10 10h205.624c.41-6.348 2.454-12.281 5.741-17.427 12.317-32.646 19.864-57.996 20.089-83.29.175-19.507-10.688-45.674-14.631-54.515a29.889 29.889 0 01-3.864-14.706c0-17.361 14.918-31.436 33.321-31.436 18.404 0 33.322 14.074 33.322 31.436 0 5.794-1.662 11.222-4.561 15.883-4.644 9.787-15.472 34.551-15.803 53.338-.438 24.873 6.783 49.998 21.356 82.395 3.632 5.349 5.896 11.602 6.33 18.322H353c5.522 0 10-4.477 10-10V10c0-5.523-4.478-10-10-10H10zm272.68 399.139c6.113 0 11.068-4.956 11.068-11.069 0-6.112-4.955-11.068-11.068-11.068-6.114 0-11.069 4.956-11.069 11.068 0 6.113 4.955 11.069 11.069 11.069zm-59.407 24.954c0 12.226-9.911 22.136-22.136 22.136-12.226 0-22.137-9.91-22.137-22.136 0-12.226 9.911-22.137 22.137-22.137 12.225 0 22.136 9.911 22.136 22.137zm32.86 127.673c18.339 0 33.206-14.867 33.206-33.206 0-18.339-14.867-33.205-33.206-33.205-18.339 0-33.205 14.866-33.205 33.205s14.866 33.206 33.205 33.206z" fill="url(#paint0_linear_427_2272)"/><defs><linearGradient id="paint0_linear_427_2272" x1="123.999" y1="-13" x2="74.144" y2="813.389" gradientUnits="userSpaceOnUse"><stop stop-opacity=".88"/><stop offset="1" stop-opacity="0"/></linearGradient></defs></svg>

<svg width="363" height="769" viewBox="0 0 363 769" fill="none" xmlns="http://www.w3.org/2000/svg">
<path opacity="0.6" fill-rule="evenodd" clip-rule="evenodd" d="M10 0C4.47754 0 0 4.47705 0 10V759C0 764.523 4.47754 769 10 769H215.624C216.034 762.652 218.078 756.719 221.365 751.573C233.682 718.927 241.229 693.577 241.454 668.283C241.629 648.776 230.766 622.609 226.823 613.768C224.356 609.38 222.959 604.375 222.959 599.062C222.959 581.701 237.877 567.626 256.28 567.626C274.684 567.626 289.602 581.7 289.602 599.062C289.602 604.856 287.94 610.284 285.041 614.945C280.397 624.732 269.569 649.496 269.238 668.283C268.8 693.156 276.021 718.281 290.594 750.678C294.226 756.027 296.49 762.28 296.924 769H353C358.522 769 363 764.523 363 759V10C363 4.47705 358.522 0 353 0H10ZM282.68 399.139C288.793 399.139 293.748 394.183 293.748 388.07C293.748 381.958 288.793 377.002 282.68 377.002C276.566 377.002 271.611 381.958 271.611 388.07C271.611 394.183 276.566 399.139 282.68 399.139ZM223.273 424.093C223.273 436.319 213.362 446.229 201.137 446.229C188.911 446.229 179 436.319 179 424.093C179 411.867 188.911 401.956 201.137 401.956C213.362 401.956 223.273 411.867 223.273 424.093ZM256.133 551.766C274.472 551.766 289.339 536.899 289.339 518.56C289.339 500.221 274.472 485.355 256.133 485.355C237.794 485.355 222.928 500.221 222.928 518.56C222.928 536.899 237.794 551.766 256.133 551.766Z" fill="url(#paint0_linear_427_2272)"/>
<defs>
<linearGradient id="paint0_linear_427_2272" x1="123.999" y1="-13" x2="74.1444" y2="813.389" gradientUnits="userSpaceOnUse">
<stop stop-opacity="0.88"/>
<stop offset="1" stop-opacity="0"/>
</linearGradient>
</defs>
</svg>
